assets/img/components/global-footer.svg

<svg width="272" height="144" viewBox="0 0 272 144" fill="none" xmlns="http://www.w3.org/2000/svg">
<path d="M0 8.17505C0 3.75677 3.58172 0.175049 8 0.175049H264C268.418 0.175049 272 3.75677 272 8.17505V64.175H0V8.17505Z" fill="#EFF6FB"/>
<path d="M0 111.175H272V135.175C272 139.593 268.418 143.175 264 143.175H8.00001C3.58173 143.175 0 139.593 0 135.175V111.175Z" fill="#EDEDED"/>
<path d="M21.3712 125.915C21.0991 125.844 20.855 125.644 20.561 125.644C20.1444 125.597 19.5091 125.616 19.0622 125.705C18.7439 125.774 18.4889 125.832 18.4791 126.189C18.4755 126.505 18.8751 126.826 18.8095 127.149C18.6662 127.72 17.9435 128.071 17.4819 128.354C17.3629 128.417 17.1698 128.511 17.0896 128.624C16.956 128.813 16.9851 129.392 17.0896 129.394C18.7366 129.399 23.6899 129.401 25.9771 129.4C26.2771 129.425 26.4739 129.637 26.616 129.913C26.7617 130.165 26.7787 130.497 26.899 130.749C27.0532 131.014 27.4468 131.124 27.6921 131.288C28.0116 131.479 28.3092 131.692 28.6565 131.85C28.8485 131.937 29.0938 132.032 29.2104 132.22L29.2772 132.482C29.2699 132.604 29.1084 132.697 29.0221 132.761C28.8885 132.861 28.7744 132.972 28.6991 133.125L28.6808 133.367C28.7877 133.537 29.2165 133.372 29.3622 133.324C29.5639 133.256 29.7679 133.165 29.9781 133.129C30.8732 132.97 31.7891 132.835 32.592 132.41C32.7061 132.349 32.9636 132.253 32.9952 132.128C33.0742 131.817 32.1523 132.114 32.0405 132.15C31.8413 132.22 31.6275 132.215 31.4198 132.246C30.9595 132.325 30.3194 132.456 29.8651 132.47C29.6368 132.495 29.5262 132.32 29.5797 132.094C29.6428 131.811 29.9052 131.637 29.887 131.341C29.8505 130.737 30.0425 130.067 30.0315 129.457C29.9987 128.696 30.3169 127.972 30.34 127.219C30.3607 126.573 30.453 125.927 30.374 125.285C30.3048 124.716 30.0874 124.04 30.1323 123.466C30.1433 123.327 30.1651 123.24 30.204 123.108C30.3631 122.667 30.2125 122.203 30.2137 121.768C30.2149 121.224 30.3121 120.996 29.9635 120.931C29.6149 120.867 28.6371 120.962 28.2606 120.937C27.7322 120.952 27.1941 120.925 26.7143 121.151C26.118 121.435 25.6515 121.95 25.2592 122.462C25.0454 122.803 24.6118 122.91 24.3932 123.243C24.1709 123.55 24.3531 123.891 24.3652 124.228C24.3798 125.266 24.0191 125.112 23.3522 125.649C23.0644 125.881 22.6781 125.926 22.321 125.933C22.038 125.94 21.6457 125.987 21.3712 125.915Z" fill="#BEC0C1"/>
<path d="M74.8155 129.175H47.1845C45.8738 129.175 45 128.375 45 127.174C45 125.973 45.8738 125.175 47.1845 125.175H74.8155C76.1262 125.175 77 125.973 77 127.174C77 128.375 76.1262 129.175 74.8155 129.175Z" fill="#BEC0C1"/>
<path d="M114.816 129.175H87.1845C85.8738 129.175 85 128.375 85 127.174C85 125.973 85.8738 125.175 87.1845 125.175H114.816C116.126 125.175 117 125.973 117 127.174C117 128.375 116.126 129.175 114.816 129.175Z" fill="#BEC0C1"/>
<path d="M154.816 129.175H127.185C125.874 129.175 125 128.375 125 127.174C125 125.973 125.874 125.175 127.185 125.175H154.816C156.126 125.175 157 125.973 157 127.174C157 128.375 156.126 129.175 154.816 129.175Z" fill="#BEC0C1"/>
<rect width="272" height="43" transform="translate(0 66.175)" fill="#0E324F"/>
<path d="M96.1297 84.175H22.8703C21.1481 84.175 20 82.9744 20 81.1734C20 79.3724 21.1481 78.175 22.8703 78.175H96.1297C97.8519 78.175 99 79.3724 99 81.1734C99 82.9744 97.8519 84.175 96.1297 84.175Z" fill="#457AA5"/>
<path d="M67.9638 97H22.5636C21.1836 97 20.2637 96.2 20.2637 95C20.2637 93.8 21.1836 93 22.5636 93H67.9638C69.3437 93 70.2637 93.8 70.2637 95C70.2637 96.2 69.3437 97 67.9638 97Z" fill="#457AA5"/>
<path d="M124.964 97H79.5636C78.1836 97 77.2637 96.2 77.2637 95C77.2637 93.8 78.1836 93 79.5636 93H124.964C126.344 93 127.264 93.8 127.264 95C127.264 96.2 126.344 97 124.964 97Z" fill="#457AA5"/>
<path d="M181.964 97H136.564C135.184 97 134.264 96.2 134.264 95C134.264 93.8 135.184 93 136.564 93H181.964C183.344 93 184.264 93.8 184.264 95C184.264 96.2 183.344 97 181.964 97Z" fill="#457AA5"/>
</svg>

<svg xmlns="http://www.w3.org/2000/svg" width="272" height="144" fill="none" viewBox="0 0 272 144"><path fill="#eff6fb" d="M0 8.175a8 8 0 0 1 8-8h256a8 8 0 0 1 8 8v56H0z"/><path fill="#ededed" d="M0 111.175h272v24a8 8 0 0 1-8 8H8a8 8 0 0 1-8-8z"/><path fill="#bec0c1" d="M21.371 125.915c-.272-.071-.516-.271-.81-.271a5.6 5.6 0 0 0-1.499.061c-.318.069-.573.127-.583.484-.003.316.396.637.33.96-.143.571-.866.922-1.327 1.205-.12.063-.312.157-.392.27-.134.189-.105.768 0 .77 1.647.005 6.6.007 8.887.006.3.025.497.237.639.513.146.252.163.584.283.836.154.265.548.375.793.539.32.191.617.404.965.562.192.087.437.182.553.37l.067.262c-.007.122-.169.215-.255.279-.133.1-.248.211-.323.364l-.018.242c.107.17.535.005.681-.043.202-.068.406-.159.616-.195.895-.159 1.811-.294 2.614-.719.114-.061.372-.157.403-.282.08-.311-.843-.014-.954.022-.2.07-.413.065-.621.096-.46.079-1.1.21-1.555.224-.228.025-.339-.15-.285-.376.063-.283.325-.457.307-.753-.037-.604.155-1.274.145-1.884-.033-.761.285-1.485.308-2.238.02-.646.113-1.292.034-1.934-.07-.569-.287-1.245-.242-1.819.011-.139.033-.226.072-.358.16-.441.008-.905.01-1.34 0-.544.098-.772-.25-.837-.35-.064-1.327.031-1.703.006-.529.015-1.067-.012-1.547.214-.596.284-1.062.799-1.455 1.311-.214.341-.647.448-.866.781-.222.307-.04.648-.028.985.015 1.038-.346.884-1.013 1.421-.288.232-.674.277-1.031.284-.283.007-.675.054-.95-.018M74.816 129.175H47.183c-1.31 0-2.184-.8-2.184-2.001s.874-1.999 2.185-1.999h27.63c1.311 0 2.185.798 2.185 1.999s-.874 2.001-2.184 2.001M114.816 129.175H87.184c-1.31 0-2.184-.8-2.184-2.001s.874-1.999 2.185-1.999h27.631c1.31 0 2.184.798 2.184 1.999s-.874 2.001-2.184 2.001M154.816 129.175h-27.631c-1.311 0-2.185-.8-2.185-2.001s.874-1.999 2.185-1.999h27.631c1.31 0 2.184.798 2.184 1.999s-.874 2.001-2.184 2.001"/><path fill="#0e324f" d="M0 66.175h272v43H0z"/><path fill="#457aa5" d="M96.13 84.175H22.87c-1.722 0-2.87-1.2-2.87-3.002 0-1.8 1.148-2.998 2.87-2.998h73.26c1.722 0 2.87 1.197 2.87 2.998s-1.148 3.002-2.87 3.002M67.964 97h-45.4c-1.38 0-2.3-.8-2.3-2s.92-2 2.3-2h45.4c1.38 0 2.3.8 2.3 2s-.92 2-2.3 2M124.964 97h-45.4c-1.38 0-2.3-.8-2.3-2s.92-2 2.3-2h45.4c1.38 0 2.3.8 2.3 2s-.92 2-2.3 2M181.964 97h-45.4c-1.38 0-2.3-.8-2.3-2s.92-2 2.3-2h45.4c1.38 0 2.3.8 2.3 2s-.92 2-2.3 2"/></svg>
